actions/symbolic/system-run-symbolic.svg

<?xml version="1.0" encoding="UTF-8" standalone="no"?>
<svg
   xmlns:dc="http://purl.org/dc/elements/1.1/"
   xmlns:cc="http://creativecommons.org/ns#"
   xmlns:rdf="http://www.w3.org/1999/02/22-rdf-syntax-ns#"
   xmlns:svg="http://www.w3.org/2000/svg"
   xmlns="http://www.w3.org/2000/svg"
   xmlns:sodipodi="http://sodipodi.sourceforge.net/DTD/sodipodi-0.dtd"
   xmlns:inkscape="http://www.inkscape.org/namespaces/inkscape"
   viewBox="0 0 16 16"
   id="svg3259"
   version="1.1"
   inkscape:version="0.91 r13725"
   sodipodi:docname="system-run-symbolic.svg">
  <metadata
     id="metadata3267">
    <rdf:RDF>
      <cc:Work
         rdf:about="">
        <dc:format>image/svg+xml</dc:format>
        <dc:type
           rdf:resource="http://purl.org/dc/dcmitype/StillImage" />
      </cc:Work>
    </rdf:RDF>
  </metadata>
  <sodipodi:namedview
     pagecolor="#ffffff"
     bordercolor="#666666"
     borderopacity="1"
     objecttolerance="10"
     gridtolerance="10"
     guidetolerance="10"
     inkscape:pageopacity="0"
     inkscape:pageshadow="2"
     inkscape:window-width="640"
     inkscape:window-height="480"
     id="namedview3265"
     showgrid="false"
     inkscape:zoom="41.1875"
     inkscape:cx="3.6783005"
     inkscape:cy="8"
     inkscape:current-layer="svg3259" />
  <defs
     id="defs3051">
    <style
       type="text/css"
       id="current-color-scheme">
      .ColorScheme-Text {
        color:#bebebe;
      }
      </style>
  </defs>
  <path
     style="color:#bebebe;fill:currentColor;fill-opacity:1;stroke:none"
     class="ColorScheme-Text"
     d="m 7.1328122,2.0000007 c -0.1510296,0 -0.2448112,0.073439 -0.28125,0.219308 C 6.7838625,2.4796572 6.7088878,2.9640822 6.6255578,3.6724336 6.3807459,3.7506908 6.1432437,3.848982 5.9140622,3.9687506 L 4.8359374,3.1333711 c -0.0677,-0.052028 -0.1348674,-0.078683 -0.202567,-0.078683 -0.1145908,0 -0.3606592,0.1867145 -0.7382812,0.5591517 C 3.5174671,3.9862856 3.2604951,4.2650932 3.125,4.4525675 3.078109,4.5202825 3.054688,4.5812996 3.054688,4.6333711 c 0,0.062486 0.026614,0.1250743 0.078683,0.1874999 0.34895,0.4219286 0.6270061,0.7811507 0.8353791,1.0781249 C 3.8385288,6.1385331 3.7369401,6.3776507 3.6640624,6.617188 L 2.2109375,6.8364959 C 2.1536898,6.8469531 2.1036549,6.8796167 2.0619419,6.9369423 2.0202308,6.9941995 2,7.0553202 2,7.1177459 l 0,1.7343749 c 0,0.0678 0.020229,0.1278176 0.061942,0.1824772 0.041713,0.05477 0.096363,0.08842 0.1640625,0.09877 l 1.4296874,0.210937 c 0.072878,0.255163 0.1807552,0.513089 0.3214285,0.773437 -0.093686,0.130218 -0.2344064,0.313739 -0.4218749,0.550781 -0.1874686,0.237044 -0.3203815,0.40956 -0.3984374,0.518975 -0.041713,0.05743 -0.063616,0.116608 -0.063616,0.179128 0,0.06772 0.018806,0.128733 0.055246,0.180804 0.203099,0.281349 0.6327787,0.718835 1.2890624,1.312501 0.057344,0.05734 0.1229928,0.08538 0.1958706,0.08538 0.078152,0 0.1421272,-0.02352 0.1941963,-0.07032 L 5.9291288,12.03962 c 0.2136471,0.109414 0.4479568,0.204519 0.703125,0.287945 l 0.219308,1.438058 c 0.00527,0.06772 0.035744,0.123114 0.090402,0.167411 C 6.9966223,13.977436 7.0599344,14 7.1328122,14 l 1.7343749,0 c 0.1512215,0 0.2447152,-0.07344 0.2812501,-0.219307 0.067604,-0.260443 0.1426744,-0.744775 0.2260043,-1.453126 0.2448119,-0.07817 0.4824098,-0.176549 0.7114955,-0.296317 l 1.078125,0.84375 c 0.07287,0.0468 0.141816,0.07032 0.204241,0.07032 0.114495,0 0.358322,-0.184272 0.733259,-0.554129 0.375128,-0.369755 0.632956,-0.651005 0.773438,-0.843751 0.04689,-0.05203 0.07031,-0.113097 0.07031,-0.180803 0,-0.06772 -0.02652,-0.131873 -0.07868,-0.194197 -0.374937,-0.458365 -0.652993,-0.817682 -0.835379,-1.078124 0.104138,-0.192746 0.205727,-0.43025 0.304688,-0.711496 l 1.444756,-0.219312 c 0.06243,-0.01046 0.11575,-0.04311 0.157366,-0.100447 C 13.979671,9.005715 14,8.9446805 14,8.8822547 L 14,7.1478798 C 14.000095,7.0801658 13.97987,7.0201565 13.93806,6.9654022 13.89625,6.9106302 13.8417,6.8769842 13.773998,6.8666302 L 12.34431,6.6489962 c -0.07816,-0.2499857 -0.186029,-0.5062981 -0.321428,-0.766741 0.09369,-0.1302171 0.234406,-0.3137383 0.421875,-0.5507812 0.187468,-0.2370429 0.320286,-0.4095589 0.398438,-0.5189732 0.04171,-0.057343 0.06362,-0.1166094 0.06362,-0.1791294 0,-0.072857 -0.01872,-0.1307246 -0.05524,-0.172433 -0.187469,-0.2657144 -0.617148,-0.7077242 -1.289062,-1.327567 -0.06233,-0.052028 -0.128267,-0.078683 -0.195871,-0.078683 -0.07816,0 -0.140609,0.023512 -0.1875,0.070312 L 10.07087,3.96038 C 9.8572234,3.8509658 9.6229133,3.7557651 9.3677451,3.6724336 L 9.1484372,2.2343757 C 9.1432599,2.1666613 9.1126933,2.1112621 9.0580353,2.066965 9.003281,2.0226506 8.9402567,2.0000007 8.8671871,2.0000007 l -1.7343749,0 z m 0.8671875,3.9994417 c 0.5521452,0 1.024053,0.1953718 1.4146204,0.5859375 0.3905673,0.3906686 0.5859369,0.8624747 0.5859369,1.4146204 0,0.5521458 -0.1953696,1.0240547 -0.5859369,1.4146207 -0.3905674,0.39066 -0.8624752,0.585937 -1.4146204,0.585937 -0.5521452,0 -1.0239572,-0.195277 -1.4146204,-0.585937 C 6.1948118,9.024055 5.9994417,8.5521461 5.9994417,8.0000003 c 0,-0.5521457 0.1952742,-1.0239518 0.5859376,-1.4146204 C 6.9760425,6.1948142 7.4479504,5.9994424 7.9999997,5.9994424 Z"
     id="path3263"
     inkscape:connector-curvature="0" />
</svg>

<svg xmlns="http://www.w3.org/2000/svg" viewBox="0 0 16 16">
  <path fill="#bebebe" d="M7.133 2c-.151 0-.245.073-.281.22-.068.26-.143.744-.226 1.452a4.475 4.475 0 0 0-.712.297l-1.078-.836a.332.332 0 0 0-.203-.078c-.114 0-.36.186-.738.559-.378.372-.635.651-.77.839a.332.332 0 0 0-.07.18c0 .063.026.125.078.188.35.422.627.781.836 1.078-.13.24-.232.479-.305.718l-1.453.22a.235.235 0 0 0-.15.1.303.303 0 0 0-.061.18v1.735c0 .068.02.128.062.183a.247.247 0 0 0 .164.098l1.43.211c.073.255.18.513.321.774-.094.13-.234.313-.422.55-.187.238-.32.41-.398.52a.301.301 0 0 0-.009.36c.204.28.633.718 1.29 1.312a.27.27 0 0 0 .195.085.279.279 0 0 0 .195-.07l1.101-.835c.214.109.448.204.703.288l.22 1.438a.231.231 0 0 0 .09.167.293.293 0 0 0 .19.067h1.735c.151 0 .245-.073.281-.22.068-.26.143-.744.226-1.452.245-.079.483-.177.712-.297l1.078.844c.073.047.142.07.204.07.115 0 .359-.184.734-.554s.633-.65.773-.844a.263.263 0 0 0 .07-.18.3.3 0 0 0-.078-.195 19.566 19.566 0 0 1-.836-1.078 5.02 5.02 0 0 0 .305-.711l1.445-.22a.238.238 0 0 0 .157-.1.304.304 0 0 0 .062-.18V7.147a.29.29 0 0 0-.062-.183.247.247 0 0 0-.164-.098l-1.43-.218a4.732 4.732 0 0 0-.321-.767c.094-.13.234-.313.422-.55.187-.238.32-.41.398-.52a.3.3 0 0 0 .064-.179.254.254 0 0 0-.055-.172c-.188-.266-.618-.708-1.29-1.328a.304.304 0 0 0-.195-.078.254.254 0 0 0-.188.07l-1.108.835a4.83 4.83 0 0 0-.703-.288l-.22-1.438a.231.231 0 0 0-.09-.167.294.294 0 0 0-.19-.067H7.132zM8 6c.552 0 1.024.195 1.415.585.39.391.586.863.586 1.415s-.196 1.024-.586 1.415A1.93 1.93 0 0 1 8 10a1.928 1.928 0 0 1-1.415-.586A1.928 1.928 0 0 1 6 8c0-.552.196-1.024.586-1.415C6.976 6.195 7.448 6 8 6z"/>
</svg>
